X:1
T:Dark Isle
M:3/4
K:D
B2|"Em"e4 fe|"Bm"d4 ed|"G"B4 {A}GB|"A7"A4 de|"D"f4 ed|{f}a4 de|"G"f4 {d}af|"A7"[e4A4] B2|
"Em"e4 fe|"Bm"d4 ed|"G"B4 {A}GB|"D"A4 de|"Em"f4 {d} af|"A"e4 {d}fe|"G"d4 {e} dc|"D"d4fg||
"D"a4 {f}a2|f4 ed|{B}"G"G4 AB|"A7"A4 de|"D"f4 ed|{f}a4 de|"G"f4 {d}af|"A"e4 B2|
"Em"e4 fe|"Bm"d4 ed|"G"B4 {A}GB|"D"A4 de|"Em"f4 {d} af|"A"e4 {d}fe|"G"d4 {e} dc|"D"d6|]
W:
W:In the years long ago when I first left my home
W:I was young and I wanted the whole world to roam;
W:But now I am older and wiser, you see,
W:For that lovely dark island is calling to me.
W:
W: Chorus:
W: O, I've wandered away from the land of my birth,
W: And been roaming around to the ends of the earth,
W: Still my heart is at home in that land far away
W: That lovely dark island where memories stray.
W:
W:One day I'll return to that far-distant shore,
W:And from that dear island I'll wander no more.
W:'Til the day that I die I will no longer roam
W:For that lovely dark island will be my last home.
